X: 08023
T: COUSIN EDDY'S JIG
C: Bob McQuillen 21 Feb 91
B: Bob's Note Book 8 #23
%R: jig
Z: 2021 John Chambers <jc:trillian.mit.edu>
M: 6/8
L: 1/8
K: D
A2B \
| dAF ABd | B2d ABc | dfe dBd | AFD E2F |\
| DFA AFA | def efg | afd edc | d3 :|
|: d2e \
| fdf ede | fdB Ade | faf ede | fdB Bdf |\
| ede fdB | def edB | AFD EFE | D3 :|
%%begintext align
%% This second tune
%% is for my dear cousin Eddy Martinez. He and
%% Cathy really surprised me one time when they
%% came to a contra dance we were playing for at
%% Woods Hole, MA. I couldn't believe my eyes!
%% Ted Sanella was calling that night, with Sarah Bauhan,
%% David Surette, and I making the music. It was a great
%% evening in my life.
%%endtext

%%sep 1 1 500

%%sep 1 1 500

